svg/emoji_u1fa97.svg

<?xml version="1.0" encoding="utf-8"?>
<!-- Generator: Adobe Illustrator 24.0.3, SVG Export Plug-In . SVG Version: 6.00 Build 0)  -->
<svg version="1.1" id="Layer_4" xmlns="http://www.w3.org/2000/svg" xmlns:xlink="http://www.w3.org/1999/xlink" x="0" y="0"
	 viewBox="0 0 128 128" style="enable-background:new 0 0 128 128;" xml:space="preserve">
<g>
	<path style="fill:none;stroke:#212121;stroke-width:2.1573;stroke-miterlimit:10;" d="M12.76,78.83"/>
	<path style="fill:#FCE8B2;" d="M110.65,19.14c-0.29-0.13,0.43-1.31-10.57-1.61c-0.96-0.03-4.13,1.66-7.75,1.71
		c-3.75,0.05-6.1-1.51-7.36-2.72c-0.56-0.54-1.45-0.4-1.85,0.26c-0.71,1.19-2.06,2.73-4.54,3.62c-2.87,1.03-5.46-0.09-6.92-1
		c-0.61-0.38-1.43-0.11-1.7,0.56c-0.64,1.59-2.09,4.05-5.22,5.23c-2.85,1.08-5.14,0.18-6.55-0.74c-0.7-0.46-1.64-0.05-1.79,0.77
		c-0.39,2.09-1.33,5.18-3.61,6.41c-2.72,1.46-5.33,0.52-6.98-0.46c-0.76-0.46-1.74,0.02-1.81,0.91c-0.16,2.39-0.82,6.11-3.18,8.2
		c-2.55,2.26-6.4,1.65-8.53,1.07c-0.75-0.2-1.47,0.36-1.48,1.14c-0.02,1.89-0.33,4.96-1.93,6.67c-2.15,2.29-5.65,2.88-5.65,2.88
		l50.08,48.96c1.17-1.25,7.92-10.42,26.08-13.62c1.73-0.31,9.52-1.32,10.27-1.82c1.02-0.69,0.02-7.39,0.07-9.03
		c0.13-4.73,0.26-9.46,0.39-14.2c0.25-9.26,0.51-18.52,0.76-27.78c0.09-3.22,0.18-6.45,0.26-9.67c0.03-1.16,0.21-2.41,0.1-3.57
		C111.12,19.85,111.3,19.43,110.65,19.14z"/>
	<path style="fill:none;stroke:#212121;stroke-width:2.1573;stroke-miterlimit:10;" d="M17.64,70.34"/>
	<path style="fill:none;stroke:#212121;stroke-width:2.1573;stroke-miterlimit:10;" d="M13.57,76.39"/>
	<path style="fill:#FFBD66;" d="M31.26,41.57c-0.26,0.21-0.44,0.54-0.45,0.92c-0.02,1.89-0.33,4.96-1.93,6.67
		c-0.06,0.06-0.12,0.11-0.17,0.17l48.47,47.72L31.26,41.57z"/>
	<path style="fill:#FFBD66;" d="M44.71,31.1c-0.38,0.16-0.67,0.51-0.71,0.98c-0.16,2.39-0.82,6.11-3.18,8.2
		c-0.05,0.04-0.1,0.08-0.15,0.12c11.92,15.48,40.57,53.09,40.57,53.09L44.71,31.1z"/>
	<path style="fill:#FFBD66;" d="M56.4,25.22c-0.39,2.09-1.33,5.18-3.61,6.41c-0.08,0.04-0.15,0.06-0.23,0.1
		c7.51,14.31,24.74,46.72,32.04,60.43c0.2-0.1,0.4-0.2,0.6-0.3L57.01,24.4C56.71,24.56,56.47,24.85,56.4,25.22z"/>
	<path style="fill:#FFBD66;" d="M69.96,19.96c-0.62,1.56-2.04,3.94-5.03,5.15c5.39,14.95,18.61,50.29,24.14,65.06
		c0.22-0.08,0.45-0.16,0.67-0.25L71.02,19.24C70.57,19.25,70.14,19.51,69.96,19.96z"/>
	<path style="fill:#FFBD66;" d="M83.12,16.78c-0.71,1.19-2.06,2.73-4.54,3.62c-0.15,0.05-0.3,0.08-0.45,0.12l14.31,68.5
		c0.44-0.13,0.89-0.27,1.35-0.39l-9.97-72.39C83.53,16.32,83.28,16.5,83.12,16.78z"/>
	<path style="fill:#FFBD66;" d="M99.53,17.62c-1.33,0.34-4.1,1.58-7.2,1.62c-0.38,0.01-0.74-0.02-1.1-0.04
		c1.15,17.13,3.54,52.75,4.91,68.83c0.25-0.06,0.51-0.11,0.77-0.17c0.12-3.94,0.17-9.04,0.17-9.04L99.53,17.62z"/>
	<g>
		<path style="fill:#6D4C41;" d="M78.41,97.6c-0.46,0-0.91-0.19-1.23-0.56L30.52,42.87c-0.58-0.68-0.51-1.7,0.17-2.28
			c0.68-0.58,1.7-0.51,2.28,0.17l46.67,54.17c0.58,0.68,0.51,1.7-0.17,2.28C79.16,97.47,78.79,97.6,78.41,97.6z"/>
	</g>
	<g>
		<path style="fill:#6D4C41;" d="M82.33,95.02c-0.55,0-1.08-0.28-1.38-0.78L43.03,31.82c-0.46-0.76-0.22-1.76,0.54-2.22
			c0.76-0.46,1.76-0.22,2.22,0.54l37.92,62.42c0.46,0.76,0.22,1.76-0.54,2.22C82.9,94.94,82.62,95.02,82.33,95.02z"/>
	</g>
	<g>
		<path style="fill:#6D4C41;" d="M84.78,92.12L55.77,25.35c-0.35-0.82,0.02-1.77,0.84-2.13c0.82-0.35,1.77,0.02,2.13,0.84
			l29.01,66.77c0,0,0.42,1.34-0.91,1.98C85.47,93.48,84.78,92.12,84.78,92.12z"/>
	</g>
	<g>
		<path style="fill:#6D4C41;" d="M90.51,91.56c-0.71,0-1.36-0.47-1.56-1.18l-19.6-70.12c-0.24-0.86,0.26-1.75,1.12-1.99
			c0.86-0.24,1.75,0.26,1.99,1.12l19.6,70.12c0.24,0.86-0.26,1.75-1.12,1.99C90.8,91.54,90.65,91.56,90.51,91.56z"/>
	</g>
	<g>
		<path style="fill:#6D4C41;" d="M94.24,90.44c-0.79,0-1.49-0.59-1.6-1.4l-10-72.17c-0.12-0.89,0.5-1.7,1.38-1.82
			c0.88-0.13,1.7,0.5,1.82,1.38l10,72.17c0.12,0.88-0.5,1.7-1.38,1.82C94.39,90.43,94.32,90.44,94.24,90.44z"/>
	</g>
	<path style="fill:#CF381A;" d="M96.48,87.37c-0.03,1.33,0.99,2.44,2.32,2.51l15.38,0.59c4.63,0.12,8.48-3.53,8.6-8.16l1.46-55.94
		c0.12-4.63-3.53-8.48-8.16-8.6l-15.11-0.57c-1.45-0.08-2.68,1.06-2.72,2.51L96.48,87.37z"/>
	<path style="fill:#CF381A;" d="M66.91,109.56l-9.75,10.07c-1.69,1.75-4.48,1.79-6.22,0.1L5.1,75.34c-1.75-1.69-1.79-4.48-0.1-6.22
		l9.75-10.07c1.69-1.75,4.48-1.79,6.22-0.1l45.83,44.39C68.55,105.03,68.6,107.81,66.91,109.56z"/>
	<path style="fill:#822322;" d="M9.83,69.85c-1.54,1.59-1.5,4.12,0.09,5.66c0.92,0.89,2.16,1.24,3.35,1.07
		c-0.13,1.19,0.25,2.42,1.18,3.31c0.92,0.89,2.16,1.24,3.35,1.07c-0.13,1.19,0.25,2.42,1.18,3.31c0.92,0.89,2.16,1.24,3.35,1.07
		c-0.13,1.19,0.25,2.42,1.18,3.31c0.92,0.89,2.16,1.24,3.35,1.07c-0.13,1.19,0.25,2.42,1.18,3.31s2.16,1.24,3.35,1.07
		c-0.13,1.19,0.25,2.42,1.18,3.31c0.92,0.89,2.16,1.24,3.35,1.07c-0.13,1.19,0.25,2.42,1.18,3.31s2.16,1.24,3.35,1.07
		c-0.13,1.19,0.25,2.42,1.18,3.31s2.16,1.24,3.35,1.07c-0.13,1.19,0.25,2.42,1.18,3.31s2.16,1.24,3.35,1.07
		c-0.13,1.19,0.25,2.42,1.18,3.31c1.59,1.54,4.12,1.5,5.66-0.09l9.8-10.12l-46.46-45L9.83,69.85z"/>
	<path style="fill:#FFF3E0;" d="M10.64,69.01c-1.54,1.59-1.5,4.12,0.09,5.66c0.92,0.89,2.16,1.24,3.35,1.07
		c-0.13,1.19,0.25,2.42,1.18,3.31c0.92,0.89,2.16,1.24,3.35,1.07c-0.13,1.19,0.25,2.42,1.18,3.31c0.92,0.89,2.16,1.24,3.35,1.07
		c-0.13,1.19,0.25,2.42,1.18,3.31c0.92,0.89,2.16,1.24,3.35,1.07c-0.13,1.19,0.25,2.42,1.18,3.31c0.92,0.89,2.16,1.24,3.35,1.07
		c-0.13,1.19,0.25,2.42,1.18,3.31s2.16,1.24,3.35,1.07c-0.13,1.19,0.25,2.42,1.18,3.31c0.92,0.89,2.16,1.24,3.35,1.07
		c-0.13,1.19,0.25,2.42,1.18,3.31s2.16,1.24,3.35,1.07c-0.13,1.19,0.25,2.42,1.18,3.31c0.92,0.89,2.16,1.24,3.35,1.07
		c-0.13,1.19,0.25,2.42,1.18,3.31c1.59,1.54,4.12,1.5,5.66-0.09l9.8-10.12l-46.46-45L10.64,69.01z"/>
	<polygon style="fill:#FFCC80;" points="13.38,66.11 59.83,111.1 66.89,103.88 20.43,58.88 	"/>
	<path style="fill:#6D4238;" d="M24.06,66.79l-7.11,7.34c-0.31,0.32-0.83,0.33-1.15,0.02l-1.13-1.1c-0.32-0.31-0.33-0.83-0.02-1.15
		l7.11-7.34c0.31-0.32,0.83-0.33,1.15-0.02l1.13,1.1C24.36,65.95,24.37,66.47,24.06,66.79z"/>
	<path style="fill:#6D4238;" d="M27.15,69.79l-7.11,7.34c-0.31,0.32-0.83,0.33-1.15,0.02l-1.13-1.1c-0.32-0.31-0.33-0.83-0.02-1.15
		l7.11-7.34c0.31-0.32,0.83-0.33,1.15-0.02l1.13,1.1C27.45,68.95,27.46,69.46,27.15,69.79z"/>
	<path style="fill:#6D4238;" d="M33.33,75.78l-7.11,7.34c-0.31,0.32-0.83,0.33-1.15,0.02l-1.13-1.1c-0.32-0.31-0.33-0.83-0.02-1.15
		l7.11-7.34c0.31-0.32,0.83-0.33,1.15-0.02l1.13,1.1C33.64,74.94,33.65,75.45,33.33,75.78z"/>
	<path style="fill:#6D4238;" d="M36.43,78.77l-7.11,7.34c-0.31,0.32-0.83,0.33-1.15,0.02l-1.13-1.1c-0.32-0.31-0.33-0.83-0.02-1.15
		l7.11-7.34c0.31-0.32,0.83-0.33,1.15-0.02l1.13,1.1C36.73,77.94,36.74,78.45,36.43,78.77z"/>
	<path style="fill:#6D4238;" d="M39.52,81.77l-7.11,7.34c-0.31,0.32-0.83,0.33-1.15,0.02l-1.13-1.1c-0.32-0.31-0.33-0.83-0.02-1.15
		l7.11-7.34c0.31-0.32,0.83-0.33,1.15-0.02l1.13,1.1C39.82,80.93,39.83,81.45,39.52,81.77z"/>
	<path style="fill:#6D4238;" d="M45.7,87.76L38.6,95.1c-0.31,0.32-0.83,0.33-1.15,0.02l-1.13-1.1c-0.32-0.31-0.33-0.83-0.02-1.15
		l7.11-7.34c0.31-0.32,0.83-0.33,1.15-0.02l1.13,1.1C46.01,86.92,46.02,87.44,45.7,87.76z"/>
	<path style="fill:#6D4238;" d="M48.8,90.75l-7.11,7.34c-0.31,0.32-0.83,0.33-1.15,0.02l-1.13-1.1c-0.32-0.31-0.33-0.83-0.02-1.15
		l7.11-7.34c0.31-0.32,0.83-0.33,1.15-0.02l1.13,1.1C49.1,89.92,49.11,90.43,48.8,90.75z"/>
	<path style="fill:#6D4238;" d="M54.98,96.75l-7.11,7.34c-0.31,0.32-0.83,0.33-1.15,0.02l-1.13-1.1c-0.32-0.31-0.33-0.83-0.02-1.15
		l7.11-7.34c0.31-0.32,0.83-0.33,1.15-0.02l1.13,1.1C55.29,95.91,55.3,96.42,54.98,96.75z"/>
	<path style="fill:#6D4238;" d="M58.08,99.74l-7.11,7.34c-0.31,0.32-0.83,0.33-1.15,0.02l-1.13-1.1c-0.32-0.31-0.33-0.83-0.02-1.15
		l7.11-7.34c0.31-0.32,0.83-0.33,1.15-0.02l1.13,1.1C58.38,98.9,58.39,99.42,58.08,99.74z"/>
	<path style="fill:#6D4238;" d="M61.17,102.74l-7.11,7.34c-0.31,0.32-0.83,0.33-1.15,0.02l-1.13-1.1c-0.32-0.31-0.33-0.83-0.02-1.15
		l7.11-7.34c0.31-0.32,0.83-0.33,1.15-0.02l1.13,1.1C61.47,101.9,61.48,102.41,61.17,102.74z"/>
	<path style="fill:#CF381A;" d="M74.47,101.75l-8.25,8.52c-1.15,1.19-3.05,1.22-4.24,0.07L14.14,63.99
		c-1.19-1.15-1.22-3.05-0.07-4.24l8.25-8.52c1.15-1.19,3.05-1.22,4.24-0.07L74.41,97.5C75.6,98.66,75.63,100.56,74.47,101.75z"/>
	<path style="fill:#FF5722;" d="M69.98,100.06l-5.52,5.7c-1.15,1.19-3.05,1.22-4.24,0.07L16.7,63.68c-1.19-1.15-1.22-3.05-0.07-4.24
		l5.52-5.7c1.15-1.19,3.05-1.22,4.24-0.07l43.51,42.15C71.11,96.97,71.14,98.87,69.98,100.06z"/>
	<path style="fill:#FF5722;" d="M111.26,86.85l-6.8-0.15c-3.4-0.08-6.09-2.89-6.02-6.29l1.24-56.1c0.08-3.4,2.89-6.09,6.29-6.02
		l6.8,0.15c3.4,0.08,6.09,2.89,6.02,6.29l-1.24,56.1C117.47,84.23,114.66,86.92,111.26,86.85z"/>
	<circle style="fill:#6D4238;" cx="104.18" cy="44.61" r="2.18"/>
	<circle style="fill:#6D4238;" cx="103.95" cy="53.93" r="2.18"/>
	<circle style="fill:#6D4238;" cx="103.72" cy="63.25" r="2.18"/>
	<circle style="fill:#6D4238;" cx="103.49" cy="72.56" r="2.18"/>
	<circle style="fill:#6D4238;" cx="114.38" cy="35.18" r="2.18"/>
	<circle style="fill:#6D4238;" cx="114.15" cy="44.5" r="2.18"/>
	<circle style="fill:#6D4238;" cx="113.92" cy="53.81" r="2.18"/>
	<circle style="fill:#6D4238;" cx="113.68" cy="63.13" r="2.18"/>
	<circle style="fill:#6D4238;" cx="109.28" cy="39.9" r="2.18"/>
	<circle style="fill:#6D4238;" cx="109.05" cy="49.21" r="2.18"/>
	<circle style="fill:#6D4238;" cx="108.82" cy="58.53" r="2.18"/>
	<circle style="fill:#6D4238;" cx="108.59" cy="67.85" r="2.18"/>
</g>
</svg>

<?xml version="1.0" encoding="UTF-8" standalone="no"?>
<!DOCTYPE svg PUBLIC "-//W3C//DTD SVG 1.1//EN" "http://www.w3.org/Graphics/SVG/1.1/DTD/svg11.dtd">
<svg width="100%" height="100%" viewBox="0 0 128 128" version="1.1" xmlns="http://www.w3.org/2000/svg" xmlns:xlink="http://www.w3.org/1999/xlink" xml:space="preserve" xmlns:serif="http://www.serif.com/" style="fill-rule:evenodd;clip-rule:evenodd;stroke-linejoin:round;stroke-miterlimit:2;">
    <g>
        <path d="M110.65,19.14C110.36,19.01 111.08,17.83 100.08,17.53C99.12,17.5 95.95,19.19 92.33,19.24C88.58,19.29 86.23,17.73 84.97,16.52C84.41,15.98 83.52,16.12 83.12,16.78C82.41,17.97 81.06,19.51 78.58,20.4C75.71,21.43 73.12,20.31 71.66,19.4C71.05,19.02 70.23,19.29 69.96,19.96C69.32,21.55 67.87,24.01 64.74,25.19C61.89,26.27 59.6,25.37 58.19,24.45C57.49,23.99 56.55,24.4 56.4,25.22C56.01,27.31 55.07,30.4 52.79,31.63C50.07,33.09 47.46,32.15 45.81,31.17C45.05,30.71 44.07,31.19 44,32.08C43.84,34.47 43.18,38.19 40.82,40.28C38.27,42.54 34.42,41.93 32.29,41.35C31.54,41.15 30.82,41.71 30.81,42.49C30.79,44.38 30.48,47.45 28.88,49.16C26.73,51.45 23.23,52.04 23.23,52.04L73.31,101C74.48,99.75 81.23,90.58 99.39,87.38C101.12,87.07 108.91,86.06 109.66,85.56C110.68,84.87 109.68,78.17 109.73,76.53C109.86,71.8 109.99,67.07 110.12,62.33C110.37,53.07 110.63,43.81 110.88,34.55C110.97,31.33 111.06,28.1 111.14,24.88C111.17,23.72 111.35,22.47 111.24,21.31C111.12,19.85 111.3,19.43 110.65,19.14Z" style="fill:rgb(252,232,178);fill-rule:nonzero;"/>
        <g>
            <path d="M78.41,97.6C77.95,97.6 77.5,97.41 77.18,97.04L30.52,42.87C29.94,42.19 30.01,41.17 30.69,40.59C31.37,40.01 32.39,40.08 32.97,40.76L79.64,94.93C80.22,95.61 80.15,96.63 79.47,97.21C79.16,97.47 78.79,97.6 78.41,97.6Z" style="fill:rgb(109,76,65);fill-rule:nonzero;"/>
        </g>
        <g>
            <path d="M82.33,95.02C81.78,95.02 81.25,94.74 80.95,94.24L43.03,31.82C42.57,31.06 42.81,30.06 43.57,29.6C44.33,29.14 45.33,29.38 45.79,30.14L83.71,92.56C84.17,93.32 83.93,94.32 83.17,94.78C82.9,94.94 82.62,95.02 82.33,95.02Z" style="fill:rgb(109,76,65);fill-rule:nonzero;"/>
        </g>
        <g>
            <path d="M84.78,92.12L55.77,25.35C55.42,24.53 55.79,23.58 56.61,23.22C57.43,22.87 58.38,23.24 58.74,24.06L87.75,90.83C87.75,90.83 88.17,92.17 86.84,92.81C85.47,93.48 84.78,92.12 84.78,92.12Z" style="fill:rgb(109,76,65);fill-rule:nonzero;"/>
        </g>
        <g>
            <path d="M90.51,91.56C89.8,91.56 89.15,91.09 88.95,90.38L69.35,20.26C69.11,19.4 69.61,18.51 70.47,18.27C71.33,18.03 72.22,18.53 72.46,19.39L92.06,89.51C92.3,90.37 91.8,91.26 90.94,91.5C90.8,91.54 90.65,91.56 90.51,91.56Z" style="fill:rgb(109,76,65);fill-rule:nonzero;"/>
        </g>
        <g>
            <path d="M94.24,90.44C93.45,90.44 92.75,89.85 92.64,89.04L82.64,16.87C82.52,15.98 83.14,15.17 84.02,15.05C84.9,14.92 85.72,15.55 85.84,16.43L95.84,88.6C95.96,89.48 95.34,90.3 94.46,90.42C94.39,90.43 94.32,90.44 94.24,90.44Z" style="fill:rgb(109,76,65);fill-rule:nonzero;"/>
        </g>
        <path d="M96.48,87.37C96.45,88.7 97.47,89.81 98.8,89.88L114.18,90.47C118.81,90.59 122.66,86.94 122.78,82.31L124.24,26.37C124.36,21.74 120.71,17.89 116.08,17.77L100.97,17.2C99.52,17.12 98.29,18.26 98.25,19.71L96.48,87.37Z" style="fill:rgb(207,56,26);fill-rule:nonzero;"/>
        <path d="M66.91,109.56L57.16,119.63C55.47,121.38 52.68,121.42 50.94,119.73L5.1,75.34C3.35,73.65 3.31,70.86 5,69.12L14.75,59.05C16.44,57.3 19.23,57.26 20.97,58.95L66.8,103.34C68.55,105.03 68.6,107.81 66.91,109.56Z" style="fill:rgb(207,56,26);fill-rule:nonzero;"/>
        <path d="M10.64,69.01C9.1,70.6 9.14,73.13 10.73,74.67C11.65,75.56 12.89,75.91 14.08,75.74C13.95,76.93 14.33,78.16 15.26,79.05C16.18,79.94 17.42,80.29 18.61,80.12C18.48,81.31 18.86,82.54 19.79,83.43C20.71,84.32 21.95,84.67 23.14,84.5C23.01,85.69 23.39,86.92 24.32,87.81C25.24,88.7 26.48,89.05 27.67,88.88C27.54,90.07 27.92,91.3 28.85,92.19C29.77,93.08 31.01,93.43 32.2,93.26C32.07,94.45 32.45,95.68 33.38,96.57C34.31,97.46 35.54,97.81 36.73,97.64C36.6,98.83 36.98,100.06 37.91,100.95C38.83,101.84 40.07,102.19 41.26,102.02C41.13,103.21 41.51,104.44 42.44,105.33C43.37,106.22 44.6,106.57 45.79,106.4C45.66,107.59 46.04,108.82 46.97,109.71C47.89,110.6 49.13,110.95 50.32,110.78C50.19,111.97 50.57,113.2 51.5,114.09C53.09,115.63 55.62,115.59 57.16,114L66.96,103.88L20.5,58.88L10.64,69.01Z" style="fill:rgb(255,243,224);fill-rule:nonzero;"/>
        <path d="M24.06,66.79L16.95,74.13C16.64,74.45 16.12,74.46 15.8,74.15L14.67,73.05C14.35,72.74 14.34,72.22 14.65,71.9L21.76,64.56C22.07,64.24 22.59,64.23 22.91,64.54L24.04,65.64C24.36,65.95 24.37,66.47 24.06,66.79Z" style="fill:rgb(109,66,56);fill-rule:nonzero;"/>
        <path d="M27.15,69.79L20.04,77.13C19.73,77.45 19.21,77.46 18.89,77.15L17.76,76.05C17.44,75.74 17.43,75.22 17.74,74.9L24.85,67.56C25.16,67.24 25.68,67.23 26,67.54L27.13,68.64C27.45,68.95 27.46,69.46 27.15,69.79Z" style="fill:rgb(109,66,56);fill-rule:nonzero;"/>
        <path d="M33.33,75.78L26.22,83.12C25.91,83.44 25.39,83.45 25.07,83.14L23.94,82.04C23.62,81.73 23.61,81.21 23.92,80.89L31.03,73.55C31.34,73.23 31.86,73.22 32.18,73.53L33.31,74.63C33.64,74.94 33.65,75.45 33.33,75.78Z" style="fill:rgb(109,66,56);fill-rule:nonzero;"/>
        <path d="M36.43,78.77L29.32,86.11C29.01,86.43 28.49,86.44 28.17,86.13L27.04,85.03C26.72,84.72 26.71,84.2 27.02,83.88L34.13,76.54C34.44,76.22 34.96,76.21 35.28,76.52L36.41,77.62C36.73,77.94 36.74,78.45 36.43,78.77Z" style="fill:rgb(109,66,56);fill-rule:nonzero;"/>
        <path d="M39.52,81.77L32.41,89.11C32.1,89.43 31.58,89.44 31.26,89.13L30.13,88.03C29.81,87.72 29.8,87.2 30.11,86.88L37.22,79.54C37.53,79.22 38.05,79.21 38.37,79.52L39.5,80.62C39.82,80.93 39.83,81.45 39.52,81.77Z" style="fill:rgb(109,66,56);fill-rule:nonzero;"/>
        <path d="M45.7,87.76L38.6,95.1C38.29,95.42 37.77,95.43 37.45,95.12L36.32,94.02C36,93.71 35.99,93.19 36.3,92.87L43.41,85.53C43.72,85.21 44.24,85.2 44.56,85.51L45.69,86.61C46.01,86.92 46.02,87.44 45.7,87.76Z" style="fill:rgb(109,66,56);fill-rule:nonzero;"/>
        <path d="M48.8,90.75L41.69,98.09C41.38,98.41 40.86,98.42 40.54,98.11L39.41,97.01C39.09,96.7 39.08,96.18 39.39,95.86L46.5,88.52C46.81,88.2 47.33,88.19 47.65,88.5L48.78,89.6C49.1,89.92 49.11,90.43 48.8,90.75Z" style="fill:rgb(109,66,56);fill-rule:nonzero;"/>
        <path d="M54.98,96.75L47.87,104.09C47.56,104.41 47.04,104.42 46.72,104.11L45.59,103.01C45.27,102.7 45.26,102.18 45.57,101.86L52.68,94.52C52.99,94.2 53.51,94.19 53.83,94.5L54.96,95.6C55.29,95.91 55.3,96.42 54.98,96.75Z" style="fill:rgb(109,66,56);fill-rule:nonzero;"/>
        <path d="M58.08,99.74L50.97,107.08C50.66,107.4 50.14,107.41 49.82,107.1L48.69,106C48.37,105.69 48.36,105.17 48.67,104.85L55.78,97.51C56.09,97.19 56.61,97.18 56.93,97.49L58.06,98.59C58.38,98.9 58.39,99.42 58.08,99.74Z" style="fill:rgb(109,66,56);fill-rule:nonzero;"/>
        <path d="M61.17,102.74L54.06,110.08C53.75,110.4 53.23,110.41 52.91,110.1L51.78,109C51.46,108.69 51.45,108.17 51.76,107.85L58.87,100.51C59.18,100.19 59.7,100.18 60.02,100.49L61.15,101.59C61.47,101.9 61.48,102.41 61.17,102.74Z" style="fill:rgb(109,66,56);fill-rule:nonzero;"/>
        <path d="M74.47,101.75L66.22,110.27C65.07,111.46 63.17,111.49 61.98,110.34L14.14,63.99C12.95,62.84 12.92,60.94 14.07,59.75L22.32,51.23C23.47,50.04 25.37,50.01 26.56,51.16L74.41,97.5C75.6,98.66 75.63,100.56 74.47,101.75Z" style="fill:rgb(207,56,26);fill-rule:nonzero;"/>
        <circle cx="104.18" cy="44.61" r="2.18" style="fill-opacity:0.68;"/>
        <circle cx="103.95" cy="53.93" r="2.18" style="fill-opacity:0.68;"/>
        <circle cx="103.72" cy="63.25" r="2.18" style="fill-opacity:0.68;"/>
        <circle cx="103.49" cy="72.56" r="2.18" style="fill-opacity:0.68;"/>
        <circle cx="114.38" cy="35.18" r="2.18" style="fill-opacity:0.68;"/>
        <circle cx="114.15" cy="44.5" r="2.18" style="fill-opacity:0.68;"/>
        <circle cx="113.92" cy="53.81" r="2.18" style="fill-opacity:0.68;"/>
        <circle cx="113.68" cy="63.13" r="2.18" style="fill-opacity:0.68;"/>
        <circle cx="109.28" cy="39.9" r="2.18" style="fill-opacity:0.68;"/>
        <circle cx="109.05" cy="49.21" r="2.18" style="fill-opacity:0.68;"/>
        <circle cx="108.82" cy="58.53" r="2.18" style="fill-opacity:0.68;"/>
        <circle cx="108.59" cy="67.85" r="2.18" style="fill-opacity:0.68;"/>
    </g>
</svg>
